X:3058
T:John Brosnans Reel
O:england
M:4/4
L:1/8
R:Reel
D:Vinnie Kilduffs first album
K:Bm
FB~B2FBde|f2ef dcBA| FA ~A2 FAEA| FA~A2fcec|FB~B2 FBde|f2 ef dcBA|(3.f.g
.f ef decd|1FBBA B3A:|
|2FBBA B3e|:fB~B2 FBde|f2 bf afeg|fB ~B2 FBdf|eAce aece|fB~B2 FBde|f2 bf
afeg|f2 ef decd|1FBBA B3e:|2FBBA B3A||


